assets/icons/18px/medical.svg

<svg width="18" height="18" viewBox="0 0 18 18" fill="none" xmlns="http://www.w3.org/2000/svg">
<g clip-path="url(#clip0_448_2010)">
<path d="M12.2244 3V2.5C12.2141 2.5 12.2037 2.50032 12.1934 2.50097L12.2244 3ZM7.62523 3.60319L7.35772 4.02561L7.62523 3.60319ZM5.77556 3L5.80662 2.50097C5.79628 2.50032 5.78592 2.5 5.77556 2.5V3ZM1.99999 7.10526H1.49999H1.99999ZM8.99999 16L8.70957 16.407C8.88196 16.53 9.11314 16.5311 9.28665 16.4097L8.99999 16ZM15.5 7.10526C15.5 7.38141 15.7238 7.60526 16 7.60526C16.2761 7.60526 16.5 7.38141 16.5 7.10526L15.5 7.10526ZM13.3635 12.9125C13.5558 12.7143 13.551 12.3977 13.3528 12.2055C13.1545 12.0132 12.838 12.018 12.6457 12.2162L13.3635 12.9125ZM9.00867 5.03771L8.57702 4.78537L9.00867 5.03771ZM8.9913 5.03771L8.55965 5.29006L8.9913 5.03771ZM12.1934 2.50097C11.4544 2.54696 10.7387 2.78087 10.1072 3.18077L10.6423 4.02561C11.1337 3.71439 11.6872 3.53441 12.2555 3.49903L12.1934 2.50097ZM10.1072 3.18077C9.47819 3.57914 8.95531 4.13829 8.57702 4.78537L9.44032 5.29006C9.7439 4.77077 10.1579 4.33236 10.6423 4.02561L10.1072 3.18077ZM9.42296 4.78537C9.04467 4.13829 8.52179 3.57914 7.89274 3.18077L7.35772 4.02561C7.8421 4.33236 8.25608 4.77077 8.55965 5.29006L9.42296 4.78537ZM7.89274 3.18077C7.26127 2.78087 6.54554 2.54696 5.80662 2.50097L5.7445 3.49903C6.31282 3.53441 6.86627 3.71439 7.35772 4.02561L7.89274 3.18077ZM5.77556 2.5C4.60786 2.5 3.49384 2.9899 2.67685 3.85229L3.40281 4.54003C4.03695 3.87064 4.89107 3.5 5.77556 3.5L5.77556 2.5ZM2.67685 3.85229C1.84002 4.73564 1.49999 5.93265 1.49999 7.10526H2.49999C2.49999 6.11162 2.78853 5.18846 3.40281 4.54003L2.67685 3.85229ZM1.49999 7.10526C1.49999 8.22063 1.99593 9.36156 2.67365 10.4115C3.35684 11.4699 4.25915 12.4884 5.14784 13.3701C6.0385 14.2537 6.92726 15.0115 7.59238 15.5478C7.92531 15.8163 8.20314 16.0301 8.39836 16.1771C8.49599 16.2507 8.57302 16.3076 8.62601 16.3464C8.65252 16.3658 8.67301 16.3807 8.68708 16.3908C8.69412 16.3959 8.69954 16.3998 8.70331 16.4025C8.70519 16.4039 8.70666 16.4049 8.70771 16.4057C8.70823 16.4061 8.70865 16.4063 8.70896 16.4066C8.70911 16.4067 8.70927 16.4068 8.70934 16.4068C8.70947 16.4069 8.70957 16.407 8.99999 16C9.29041 15.593 9.29045 15.593 9.29047 15.593C9.29044 15.593 9.29044 15.593 9.29038 15.593C9.29027 15.5929 9.29005 15.5927 9.28972 15.5925C9.28907 15.592 9.288 15.5913 9.28652 15.5902C9.28356 15.5881 9.27894 15.5848 9.27273 15.5803C9.26031 15.5713 9.2415 15.5576 9.21674 15.5395C9.1672 15.5032 9.09384 15.449 9.00006 15.3784C8.81246 15.2371 8.54341 15.0301 8.2201 14.7694C7.57272 14.2474 6.71148 13.5127 5.85214 12.6602C4.99083 11.8057 4.14314 10.8442 3.51383 9.86921C2.87905 8.88578 2.49999 7.93988 2.49999 7.10526H1.49999ZM16.5 7.10526C16.5 5.93265 16.16 4.73564 15.3231 3.85229L14.5972 4.54003C15.2115 5.18846 15.5 6.11162 15.5 7.10526L16.5 7.10526ZM15.3231 3.85229C14.5061 2.9899 13.3921 2.5 12.2244 2.5V3.5C13.1089 3.5 13.963 3.87064 14.5972 4.54003L15.3231 3.85229ZM8.99999 16C9.28665 16.4097 9.2867 16.4096 9.28676 16.4096C9.28679 16.4096 9.28685 16.4095 9.28691 16.4095C9.28703 16.4094 9.28718 16.4093 9.28736 16.4092C9.28773 16.4089 9.28822 16.4086 9.28883 16.4081C9.29007 16.4073 9.2918 16.406 9.29403 16.4045C9.2985 16.4013 9.30494 16.3968 9.3133 16.3909C9.33001 16.379 9.35436 16.3616 9.38581 16.339C9.4487 16.2937 9.53997 16.2273 9.65518 16.1416C9.88553 15.9704 10.2119 15.7219 10.5985 15.4112C11.3706 14.7907 12.3886 13.9177 13.3635 12.9125L12.6457 12.2162C11.7087 13.1823 10.7243 14.0272 9.9721 14.6317C9.59657 14.9335 9.28027 15.1743 9.0585 15.3392C8.94764 15.4216 8.86049 15.485 8.80147 15.5275C8.77196 15.5487 8.74949 15.5647 8.73462 15.5753C8.72718 15.5806 8.72164 15.5845 8.71807 15.587C8.71628 15.5883 8.71498 15.5892 8.71419 15.5897C8.71379 15.59 8.71352 15.5902 8.71338 15.5903C8.71331 15.5904 8.71326 15.5904 8.71325 15.5904C8.71325 15.5904 8.71327 15.5904 8.71326 15.5904C8.71329 15.5904 8.71332 15.5903 8.99999 16ZM8.57702 4.78537C8.76619 4.46179 9.2338 4.4618 9.42296 4.78537L8.55965 5.29006C8.75657 5.62689 9.2434 5.6269 9.44032 5.29006L8.57702 4.78537Z" fill="white"/>
<path d="M5.81594 10.3027C5.69244 10.5497 5.79255 10.85 6.03954 10.9735C6.28653 11.097 6.58687 10.9969 6.71036 10.7499L5.81594 10.3027ZM7.63157 7.78947L8.03157 7.48947C7.9276 7.35084 7.75926 7.27593 7.58667 7.29149C7.41408 7.30706 7.26185 7.41087 7.18436 7.56587L7.63157 7.78947ZM9.6842 10.5263L9.2842 10.8263C9.37117 10.9423 9.50418 11.0148 9.64876 11.0251C9.79334 11.0353 9.93526 10.9824 10.0378 10.8799L9.6842 10.5263ZM11.0526 9.1579L11.4062 8.80434C11.3124 8.71057 11.1852 8.6579 11.0526 8.6579C10.92 8.6579 10.7928 8.71057 10.6991 8.80434L11.0526 9.1579ZM12.421 10.5263L12.0675 10.8799C12.2434 11.0558 12.522 11.0756 12.721 10.9263L12.421 10.5263ZM15.8421 10C16.1182 10 16.3421 9.77614 16.3421 9.5C16.3421 9.22386 16.1182 9 15.8421 9V10ZM13.5228 9.7L13.2228 9.3L13.5228 9.7ZM6.71036 10.7499L8.07878 8.01308L7.18436 7.56587L5.81594 10.3027L6.71036 10.7499ZM7.23157 8.08947L9.2842 10.8263L10.0842 10.2263L8.03157 7.48947L7.23157 8.08947ZM10.0378 10.8799L11.4062 9.51145L10.6991 8.80434L9.33065 10.1728L10.0378 10.8799ZM10.6991 9.51145L12.0675 10.8799L12.7746 10.1728L11.4062 8.80434L10.6991 9.51145ZM12.721 10.9263L13.8228 10.1L13.2228 9.3L12.121 10.1263L12.721 10.9263ZM14.1228 10H15.8421V9H14.1228V10ZM13.8228 10.1C13.9093 10.0351 14.0146 10 14.1228 10V9C13.7982 9 13.4824 9.10527 13.2228 9.3L13.8228 10.1Z" fill="white"/>
</g>
<defs>
<clipPath id="clip0_448_2010">
<rect width="18" height="18" fill="white"/>
</clipPath>
</defs>
</svg>

<svg width="18" height="18" fill="none" xmlns="http://www.w3.org/2000/svg"><g clip-path="url(#clip0_448_2010)"><path d="M12.224 3v-.5l-.03.001.03.499zm-4.599.603l-.267.423.267-.423zM5.775 3l.032-.499a.495.495 0 0 0-.031-.001V3zM2 7.105h-.5.5zM9 16l-.29.407a.5.5 0 0 0 .577.003L9 16zm6.5-8.895a.5.5 0 1 0 1 0h-1zm-2.136 5.807a.5.5 0 1 0-.718-.696l.717.697zM9.008 5.038l-.432-.253.432.253zm-.018 0l-.431.252.431-.252zM12.193 2.5a4.409 4.409 0 0 0-2.086.68l.535.845a3.409 3.409 0 0 1 1.614-.527l-.063-.998zm-2.086.68a4.707 4.707 0 0 0-1.53 1.604l.863.505c.304-.52.718-.958 1.202-1.264l-.535-.845zm-.684 1.604a4.707 4.707 0 0 0-1.53-1.604l-.535.845c.484.306.898.745 1.202 1.264l.863-.505zm-1.53-1.604a4.409 4.409 0 0 0-2.086-.68l-.063.998a3.409 3.409 0 0 1 1.614.527l.535-.845zM5.776 2.5c-1.168 0-2.282.49-3.1 1.352l.727.688A3.269 3.269 0 0 1 5.776 3.5v-1zm-3.1 1.352C1.84 4.736 1.5 5.932 1.5 7.105h1c0-.993.289-1.917.903-2.565l-.726-.688zM1.5 7.105c0 1.116.496 2.257 1.174 3.306.683 1.059 1.585 2.077 2.474 2.96a32.435 32.435 0 0 0 3.555 3.031l.005.004h.001L9 16l.29-.407-.003-.003a1.714 1.714 0 0 1-.07-.05 30.246 30.246 0 0 1-.997-.77 31.445 31.445 0 0 1-2.368-2.11c-.861-.854-1.709-1.816-2.338-2.79C2.879 8.885 2.5 7.94 2.5 7.104h-1zm15 0c0-1.172-.34-2.37-1.177-3.253l-.726.688c.614.648.903 1.572.903 2.565h1zm-1.177-3.253A4.268 4.268 0 0 0 12.224 2.5v1c.885 0 1.739.37 2.373 1.04l.726-.688zM9 16l.287.41.002-.002.005-.004.02-.013a21.27 21.27 0 0 0 .341-.25c.23-.17.557-.42.944-.73.772-.62 1.79-1.493 2.764-2.498l-.717-.697a29.805 29.805 0 0 1-2.674 2.416 31.019 31.019 0 0 1-1.17.896l-.067.047a2.534 2.534 0 0 1-.022.015L9 16zM8.577 4.785a.49.49 0 0 1 .846 0l-.863.505a.51.51 0 0 0 .88 0l-.863-.505zm-2.761 5.518a.5.5 0 1 0 .894.447l-.894-.447zm1.816-2.514l.4-.3a.5.5 0 0 0-.848.077l.448.223zm2.052 2.737l-.4.3a.5.5 0 0 0 .754.054l-.354-.354zm1.369-1.368l.353-.354a.5.5 0 0 0-.707 0l.354.354zm1.368 1.368l-.353.354a.5.5 0 0 0 .653.046l-.3-.4zM15.842 10a.5.5 0 0 0 0-1v1zm-2.32-.3l-.3-.4.3.4zM6.71 10.75L8.08 8.013l-.895-.447-1.368 2.737.894.447zm.522-2.66l2.052 2.736.8-.6L8.032 7.49l-.8.6zm2.806 2.79l1.368-1.369-.707-.707-1.368 1.369.707.707zm.661-1.369l1.369 1.369.707-.707-1.369-1.369-.707.707zm2.022 1.415l1.102-.826-.6-.8-1.102.826.6.8zM14.123 10h1.72V9h-1.72v1zm-.3.1a.5.5 0 0 1 .3-.1V9a1.5 1.5 0 0 0-.9.3l.6.8z" fill="#fff"/></g><defs><clipPath id="clip0_448_2010"><path fill="#fff" d="M0 0H18V18H0z"/></clipPath></defs></svg>
